docs/images/reload.svg

<svg fill="none" height="792" viewBox="0 0 1607 792" width="1607" xmlns="http://www.w3.org/2000/svg" xmlns:xlink="http://www.w3.org/1999/xlink"><linearGradient id="a"><stop offset=".53" stop-color="#fc0"/><stop offset="1" stop-color="#c6c6c6"/></linearGradient><linearGradient id="b" gradientUnits="userSpaceOnUse" x1="131" x2="611" xlink:href="#a" y1="341.5" y2="341.5"/><linearGradient id="c" gradientUnits="userSpaceOnUse" x1="131" x2="519" xlink:href="#a" y1="537.5" y2="537.5"/><linearGradient id="d" gradientUnits="userSpaceOnUse" x1="131" x2="934" xlink:href="#a" y1="635.5" y2="635.5"/><path d="m1537 10h-1467c-33.1371 0-60 26.8629-60 60v652c0 33.137 26.8629 60 60 60h1467c33.14 0 60-26.863 60-60v-652c0-33.1371-26.86-60-60-60z" fill="#fff" stroke="#f2f2f2" stroke-width="20"/><g fill="#000" fill-opacity=".05"><rect height="556" rx="38.5" width="1444" x="82" y="163"/><rect height="49" rx="24.5" width="1444" x="82" y="74"/><rect height="47" rx="23.5" width="251" x="131" y="220"/></g><rect fill="url(#b)" height="47" opacity=".32" rx="23.5" width="480" x="131" y="318"/><rect fill="url(#c)" height="47" opacity=".32" rx="23.5" width="388" x="131" y="514"/><rect fill="url(#d)" height="47" opacity=".32" rx="23.5" width="803" x="131" y="612"/><rect fill="#000" fill-opacity=".05" height="47" rx="23.5" width="1232" x="131" y="416"/><path d="m756.296 233.299c-6.455 0-11.863-2.197-16.222-6.591s-6.547-9.825-6.562-16.294 2.172-11.901 6.562-16.295 9.797-6.591 16.222-6.591h91.136c6.456 0 11.871 2.197 16.245 6.591 4.375 4.394 6.554 9.826 6.539 16.295s-2.202 11.908-6.562 16.317c-4.359 4.409-9.766 6.599-16.222 6.568zm45.568 434.829c-28.1 0-54.59-5.432-79.47-16.295-24.881-10.863-46.617-25.647-65.208-44.352-18.592-18.706-33.303-40.546-44.133-65.522s-16.245-51.577-16.245-79.803c0-28.225 5.415-54.834 16.245-79.825s25.541-46.824 44.133-65.499c18.591-18.675 40.335-33.451 65.23-44.329 24.896-10.879 51.378-16.318 79.448-16.318 23.544 0 46.138 3.814 67.783 11.443 21.644 7.629 41.96 18.69 60.947 33.184l15.949-16.02c4.177-4.195 9.493-6.293 15.948-6.293 6.456 0 11.772 2.098 15.949 6.293 4.177 4.196 6.266 9.536 6.266 16.02s-2.089 11.824-6.266 16.02l-15.949 16.02c14.43 19.072 25.442 39.478 33.037 61.219 7.592 21.742 11.392 44.437 11.392 68.085 0 28.226-5.41 54.835-16.245 79.826-10.83 24.991-25.541 46.824-44.132 65.499-18.592 18.674-40.336 33.459-65.231 44.352-24.895 10.894-51.378 16.325-79.448 16.295zm0-45.772c44.049 0 81.643-15.638 112.781-46.915s46.707-69.039 46.707-113.285c0-44.245-15.569-82.007-46.707-113.284s-68.732-46.916-112.781-46.916-81.643 15.639-112.781 46.916-46.707 69.039-46.707 113.284c0 44.246 15.569 82.008 46.707 113.285s68.732 46.915 112.781 46.915z" fill="#ffe064" stroke="#d7c26e" stroke-width="14"/><path d="m788.573 488.898h-66.453l93.035-145.442v83.11h66.453l-93.035 145.442z" fill="#ffe064" stroke="#d7c26e" stroke-width="14"/></svg>

<svg width="1607" height="792" viewBox="0 0 1607 792" fill="none" xmlns="http://www.w3.org/2000/svg">
<path d="M1537 10H70C36.8629 10 10 36.8629 10 70V722C10 755.137 36.8629 782 70 782H1537C1570.14 782 1597 755.137 1597 722V70C1597 36.8629 1570.14 10 1537 10Z" fill="white" stroke="#F2F2F2" stroke-width="20"/>
<rect x="82" y="163" width="1444" height="556" rx="38.5" fill="black" fill-opacity="0.05"/>
<rect x="82" y="74" width="1444" height="49" rx="24.5" fill="black" fill-opacity="0.05"/>
<rect x="131" y="220" width="251" height="47" rx="23.5" fill="black" fill-opacity="0.05"/>
<rect opacity="0.32" x="131" y="318" width="480" height="47" rx="23.5" fill="url(#paint0_linear_11_95)"/>
<rect opacity="0.32" x="131" y="514" width="388" height="47" rx="23.5" fill="url(#paint1_linear_11_95)"/>
<rect opacity="0.32" x="131" y="612" width="803" height="47" rx="23.5" fill="url(#paint2_linear_11_95)"/>
<rect x="131" y="416" width="1232" height="47" rx="23.5" fill="black" fill-opacity="0.05"/>
<path d="M756.296 233.299C749.841 233.299 744.433 231.102 740.074 226.708C735.715 222.314 733.527 216.883 733.512 210.414C733.497 203.945 735.684 198.513 740.074 194.119C744.464 189.725 749.871 187.528 756.296 187.528H847.432C853.888 187.528 859.303 189.725 863.677 194.119C868.052 198.513 870.231 203.945 870.216 210.414C870.201 216.883 868.014 222.322 863.654 226.731C859.295 231.14 853.888 233.33 847.432 233.299H756.296ZM801.864 668.128C773.764 668.128 747.274 662.696 722.394 651.833C697.513 640.97 675.777 626.186 657.186 607.481C638.594 588.775 623.883 566.935 613.053 541.959C602.223 516.983 596.808 490.382 596.808 462.156C596.808 433.931 602.223 407.322 613.053 382.331C623.883 357.34 638.594 335.507 657.186 316.832C675.777 298.157 697.521 283.381 722.416 272.503C747.312 261.624 773.794 256.185 801.864 256.185C825.408 256.185 848.002 259.999 869.647 267.628C891.291 275.257 911.607 286.318 930.594 300.812L946.543 284.792C950.72 280.597 956.036 278.499 962.491 278.499C968.947 278.499 974.263 280.597 978.44 284.792C982.617 288.988 984.706 294.328 984.706 300.812C984.706 307.296 982.617 312.636 978.44 316.832L962.491 332.852C976.921 351.924 987.933 372.33 995.528 394.071C1003.12 415.813 1006.92 438.508 1006.92 462.156C1006.92 490.382 1001.51 516.991 990.675 541.982C979.845 566.973 965.134 588.806 946.543 607.481C927.951 626.155 906.207 640.94 881.312 651.833C856.417 662.727 829.934 668.158 801.864 668.128ZM801.864 622.356C845.913 622.356 883.507 606.718 914.645 575.441C945.783 544.164 961.352 506.402 961.352 462.156C961.352 417.911 945.783 380.149 914.645 348.872C883.507 317.595 845.913 301.956 801.864 301.956C757.815 301.956 720.221 317.595 689.083 348.872C657.945 380.149 642.376 417.911 642.376 462.156C642.376 506.402 657.945 544.164 689.083 575.441C720.221 606.718 757.815 622.356 801.864 622.356Z" fill="#FFE064" stroke="#D7C26E" stroke-width="14"/>
<path d="M788.573 488.898H722.12L815.155 343.456V426.566H881.608L788.573 572.008V488.898Z" fill="#FFE064" stroke="#D7C26E" stroke-width="14"/>
<defs>
<linearGradient id="paint0_linear_11_95" x1="131" y1="341.5" x2="611" y2="341.5" gradientUnits="userSpaceOnUse">
<stop offset="0.53" stop-color="#FFCC00"/>
<stop offset="1" stop-color="#C6C6C6"/>
</linearGradient>
<linearGradient id="paint1_linear_11_95" x1="131" y1="537.5" x2="519" y2="537.5" gradientUnits="userSpaceOnUse">
<stop offset="0.53" stop-color="#FFCC00"/>
<stop offset="1" stop-color="#C6C6C6"/>
</linearGradient>
<linearGradient id="paint2_linear_11_95" x1="131" y1="635.5" x2="934" y2="635.5" gradientUnits="userSpaceOnUse">
<stop offset="0.53" stop-color="#FFCC00"/>
<stop offset="1" stop-color="#C6C6C6"/>
</linearGradient>
</defs>
</svg>
